X: 25106
T: Máire O' Keefe's
R: reel
M: 4/4
K: Cmajor
gcc2 Gcec|fFAc def^f|gcc2 gc (3e^fg|aege def^f|
gcc2 Gcec|fFAc (3fgf ef|decd Bcdc|1 BGFD EGC2:|2 BGFD EGCA:|
GEE2 CDEG|cGAc G2AB|cee2 agea|gece (3d^cd A=c|
GEE2 CDEG|cGAc G2AB|cee2 agea|1 gede cdAc:|2 gede cde^f||

